T: Klezmer, The
M: 4/4
L: 1/8
K: Amin
E2 A2 ABcA | BcB^G EGBG | A^GAB cBcd | ea-ae a2 ag |
f2 fg fedf | ecAB c4 | B2 A2 ^G2 A2 | BA^GF EDCD |
E2 A2 ABcA | BcB^G EGBG | A^GAB cBcd | ea-ae a2 ag |
f2 fg fedf | e2 A2 d4 | efed B2 c2 | A4 A4 ||
G2 Bd g3 f | f2 e2 e4 | E2 ^GB e3 d | d2 cd ec A2 |
F2 Ad fedf | e2 A2 d4 | Be-eB efed | Be-eB efed |
G2 Bd g3 f | f2 e2 e4 | E2 ^GB e3 d | d2 cd ec A2 |
F2 Ad fedf | e2 A2 d4 | efed B2 c2 | A4 A4 |]
